X: 1
T:Send in the Clowns
M:C
L:1/8
Q:80
C:arr: Russ Spaulding
S:March
K:HP
| {g}((3GAd){g}d6|
{g}((3GAd){g}d6|
{g}((3efd){g}((3ef{g}f){g}f4|  !
{g}((3faA){GdG}B6|
{g}((3BdG){g}A6|
{g}((3BdG){g}A6|  !
{g}((3Bdc){Gdc}d6|]
{g}((3GAd){g}d6|
{g}((3GAd){g}d6|  !
{g}((3efd){g}((3ef{g}f){g}f4|
{g}((3faA){GdG}B6|
{g}((3BdG){g}A6|  !
{g}((3BdG){g}A6|
{g}((3Bdc){Gdc}d6|]
